X:85
T: SAH EIN KNAB EIN ROESLEIN STEHN
N: B0114
O: Europa, Mitteleuropa, Deutschland
R: Ballade, Romanze
M: 2/4
L: 1/16
K: F
 | F2F2F2F2 | AGF2F4
c2c2A2F2 | B4A2z2
F2F2F2F2 | AGF2F4
A2A2A2A2 | cBA2A4
c2c2A2F2 | B4A2z2
c2A2c2A2 | f2c2c4
d2c2B2A2 | G4F2z2

